src/assets/img/shortcutMini.svg

<svg width="13" height="13" viewBox="0 0 13 13" fill="none" xmlns="http://www.w3.org/2000/svg">
<path fill-rule="evenodd" clip-rule="evenodd" d="M10.4387 3.79199C10.4387 3.41277 10.1316 3.10526 9.75258 3.10449L9.75198 3.10449C9.75154 3.10449 9.75111 3.10449 9.75067 3.10449L9.74977 3.10449L6.50116 3.10449C6.12146 3.10449 5.81366 3.4123 5.81366 3.79199C5.81366 4.17169 6.12146 4.47949 6.50116 4.47949L8.0668 4.47949C7.13655 5.39893 6.08924 6.44823 5.17363 7.36998C4.50044 8.0477 3.89732 8.65759 3.4625 9.09806C3.24507 9.31831 3.0697 9.49622 2.94866 9.6191L2.80937 9.76056L2.77316 9.79736L2.76392 9.80676L2.76157 9.80914L2.76098 9.80975L2.76083 9.8099L3.25098 10.292L2.76077 9.80996C2.49455 10.0807 2.49821 10.516 2.76894 10.7822C3.03968 11.0484 3.47496 11.0448 3.74118 10.774L3.25098 10.292L3.74122 10.774L3.74136 10.7738L3.74193 10.7733L3.74423 10.7709L3.75337 10.7616L3.78938 10.725L3.92823 10.584C4.04896 10.4615 4.22398 10.2839 4.44102 10.064C4.87512 9.62431 5.4772 9.01546 6.14915 8.339C7.07499 7.40695 8.13133 6.34869 9.06317 5.42798V7.04199C9.06317 7.42169 9.37097 7.72949 9.75067 7.72949C10.1304 7.72949 10.4382 7.42169 10.4382 7.04199V3.81815C10.4385 3.80947 10.4387 3.80075 10.4387 3.79199Z" fill="#7E818D"/>
</svg>

<svg width="13" height="13" fill="none" xmlns="http://www.w3.org/2000/svg"><path fill-rule="evenodd" clip-rule="evenodd" d="M10.4 3.8c0-.4-.3-.7-.6-.7H6.5c-.4 0-.7.3-.7.7 0 .4.3.7.7.7H8c-.9.9-2 1.9-2.8 2.9L3.5 9.1l-.5.5-.2.2.5.5-.5-.5c-.3.2-.3.7 0 1 .2.2.7.2.9 0l-.4-.5.4.5h.1v-.1l.2-.1.4-.6 1.7-1.7L9 5.4V7c0 .4.4.7.8.7.3 0 .6-.3.6-.7V3.8z" fill="#7E818D"/></svg>
